icons/ventilator_fill.svg

<svg width="48" height="48" viewBox="0 0 48 48" fill="none" xmlns="http://www.w3.org/2000/svg">
<path d="M30 18V16H37V18H30Z" fill="black"/>
<path d="M30 13V15H37V13H30Z" fill="black"/>
<path d="M30 21H37V19H30V21Z" fill="black"/>
<path fill-rule="evenodd" clip-rule="evenodd" d="M7 6C6.63577 6 6.27483 6.015 5.91778 6.04446C5.39914 6.08725 5 6.52067 5 7.04107V43C5 43.5523 5.44772 44 6 44H9C9.55228 44 10 43.5523 10 43V38.5165L10.1969 38.6009C10.2207 38.6295 10.2457 38.6576 10.2718 38.6854C10.7879 39.2337 11.5641 39.6642 12.3196 40.0009C13.1009 40.3489 13.9742 40.6453 14.7775 40.8843C15.5842 41.1243 16.3397 41.312 16.8923 41.4397C17.1692 41.5036 17.3966 41.5528 17.5556 41.5862C17.6352 41.6029 17.6978 41.6156 17.741 41.6243L17.7911 41.6343L17.8048 41.637L17.8106 41.6381L18.2899 41.7307L18.6577 41.4097C21.8166 38.653 23.7962 35.6985 24.3654 32.5146C24.9621 32.5651 25.2913 32.7387 25.4873 32.9152C25.7304 33.1339 25.913 33.4864 26.0161 34.0539C26.1203 34.6267 26.1254 35.315 26.0945 36.1014C26.085 36.3432 26.0717 36.6004 26.058 36.864C26.0297 37.4079 26 37.9797 26 38.5C26 39.4969 26.4101 40.3039 27.1425 40.8354C27.8228 41.329 28.6903 41.5206 29.5385 41.5583C31.2414 41.6341 33.3123 41.1094 35.0567 40.3138C35.9383 39.9117 36.7726 39.4244 37.4615 38.8759C38.1385 38.3369 38.7401 37.6872 39.0604 36.9411C39.4012 36.1469 39.4102 35.2564 38.8959 34.4259C38.4188 33.6557 37.5634 33.0554 36.4366 32.579C35.6888 32.2627 35.2425 31.8843 34.9609 31.4979C34.6768 31.1078 34.5135 30.6449 34.4331 30.0883C34.3512 29.521 34.3601 28.8931 34.3977 28.1885C34.4074 28.0077 34.4193 27.8185 34.4315 27.6242C34.4646 27.0977 34.5 26.534 34.5 26H36V24H41C41.5523 24 42 23.5523 42 23C42 22.4477 41.5523 22 41 22H40V8.5C40 7.11929 37.0899 6 33.5 6C29.9101 6 27 7.11929 27 8.5V22H26C25.4477 22 25 22.4477 25 23C25 23.5523 25.4477 24 26 24H31V26H32.5C32.5 26.467 32.4707 26.9333 32.4391 27.4358C32.426 27.6439 32.4125 27.8587 32.4006 28.0817C32.3616 28.8099 32.3422 29.6018 32.4537 30.3741C32.5667 31.1572 32.8185 31.9536 33.3444 32.6755C33.8731 33.4011 34.6319 33.9873 35.6577 34.421C36.6097 34.8236 37.0306 35.2127 37.1956 35.4791C37.3233 35.6852 37.34 35.8784 37.2225 36.1523C37.0843 36.4742 36.7614 36.8768 36.2158 37.3112C35.6821 37.7362 34.9957 38.1434 34.2267 38.4941C32.67 39.2042 30.92 39.6178 29.6274 39.5603C28.9777 39.5314 28.5538 39.3884 28.3171 39.2166C28.1325 39.0827 28 38.8934 28 38.5C28 38.0289 28.025 37.5526 28.0517 37.0436C28.0662 36.7668 28.0812 36.4803 28.093 36.1798C28.1246 35.3725 28.1297 34.4983 27.9839 33.6961C27.837 32.8886 27.5196 32.0536 26.8252 31.4286C26.2316 30.8943 25.4609 30.6012 24.5355 30.5221C24.5135 27.1795 22.9653 23.7912 20.043 20.3524L20 20.3019V19C20 11.8203 14.1797 6 7 6ZM17 21.5C17 22.3284 16.3284 23 15.5 23C14.6716 23 14 22.3284 14 21.5C14 20.6716 14.6716 20 15.5 20C16.3284 20 17 20.6716 17 21.5ZM37.3782 8.59892C37.6731 8.71232 37.8734 8.81908 38 8.90036V22H29V8.90036C29.1266 8.81908 29.3269 8.71232 29.6218 8.59892C30.5158 8.25506 31.8864 8 33.5 8C35.1136 8 36.4842 8.25506 37.3782 8.59892ZM18.9564 23.9686C19.1298 23.545 19.3032 23.1585 19.4621 22.8233C21.756 25.8665 22.6982 28.6542 22.5128 31.2336C22.3118 34.0297 20.7699 36.8012 17.7121 39.5742C17.6038 39.5505 17.4797 39.5227 17.3424 39.491C16.8169 39.3696 16.1036 39.1922 15.3478 38.9673C14.5885 38.7414 13.8056 38.4734 13.1336 38.174C12.5278 37.9041 12.0908 37.6424 11.8331 37.4154C11.8708 37.335 11.942 37.2112 12.0713 37.0382C12.4464 36.5366 13.0537 35.9447 13.8007 35.2169L14.0264 34.9968C14.8387 34.2039 15.7583 33.2881 16.4723 32.317C17.1775 31.358 17.7809 30.2158 17.7809 28.9688C17.7809 27.3034 18.3484 25.4543 18.9564 23.9686Z" fill="black"/>
</svg>

<svg
  xmlns="http://www.w3.org/2000/svg"
  width="24"
  height="24"
  viewBox="0 0 24 24"
  fill="none"
  stroke="currentColor"
  stroke-width="2"
  stroke-linecap="round"
  stroke-linejoin="round"
>
  <path d="M30 18v-2h7v2z" />
  <path d="M30 13v2h7v-2z" />
  <path d="M30 21h7v-2h-7z" />
  <path
    fill-rule="evenodd"
    d="M7 6q-.546 0-1.082.044A1 1 0 0 0 5 7.041V43a1 1 0 0 0 1 1h3a1 1 0 0 0 1-1v-4.483l.197.084q.036.044.075.084c.516.549 1.292.98 2.048 1.316.78.348 1.654.644 2.457.883a36 36 0 0 0 2.964.74l.05.01.014.003.006.001.479.093.368-.321c3.159-2.757 5.138-5.711 5.707-8.895.597.05.926.224 1.122.4.243.219.426.571.53 1.139.103.573.108 1.261.078 2.047-.01.242-.023.5-.037.763A33 33 0 0 0 26 38.5c0 .997.41 1.804 1.142 2.335.68.494 1.548.686 2.396.723 1.703.076 3.774-.449 5.519-1.244.881-.402 1.716-.89 2.404-1.438.678-.54 1.28-1.189 1.6-1.935.34-.794.35-1.685-.165-2.515-.477-.77-1.333-1.37-2.46-1.847-.747-.316-1.194-.695-1.475-1.081-.284-.39-.447-.853-.528-1.41-.082-.567-.073-1.195-.035-1.9l.033-.564c.034-.526.069-1.09.069-1.624H36v-2h5a1 1 0 1 0 0-2h-1V8.5C40 7.12 37.09 6 33.5 6S27 7.12 27 8.5V22h-1a1 1 0 1 0 0 2h5v2h1.5c0 .467-.03.933-.06 1.436q-.02.312-.04.646c-.038.728-.058 1.52.054 2.292.113.783.364 1.58.89 2.302.53.725 1.288 1.311 2.314 1.745.952.403 1.373.792 1.538 1.058.127.206.144.4.026.673-.138.322-.46.725-1.006 1.16-.534.424-1.22.831-1.99 1.182-1.556.71-3.306 1.124-4.599 1.066-.65-.029-1.073-.172-1.31-.343-.184-.134-.317-.324-.317-.717 0-.471.025-.947.052-1.456q.023-.415.041-.864c.032-.807.037-1.682-.11-2.484-.146-.807-.463-1.642-1.158-2.267-.593-.535-1.364-.828-2.29-.907-.021-3.342-1.57-6.73-4.492-10.17l-.043-.05V19c0-7.18-5.82-13-13-13m10 15.5a1.5 1.5 0 1 1-3 0 1.5 1.5 0 0 1 3 0M37.378 8.599c.295.113.495.22.622.301V22h-9V8.9a3.5 3.5 0 0 1 .622-.301C30.516 8.255 31.886 8 33.5 8s2.984.255 3.878.599m-18.422 15.37c.174-.424.347-.81.506-1.146 2.294 3.043 3.236 5.831 3.05 8.41-.2 2.797-1.742 5.568-4.8 8.341l-.37-.083a34 34 0 0 1-1.994-.524 19 19 0 0 1-2.214-.793c-.606-.27-1.043-.532-1.3-.759.037-.08.108-.204.237-.377.375-.501.983-1.093 1.73-1.821l.225-.22c.813-.793 1.732-1.709 2.446-2.68.705-.959 1.309-2.101 1.309-3.348 0-1.666.567-3.515 1.175-5"
    clip-rule="evenodd"
  />
</svg>
